X:1
T:Title
%%score 1 { 2 | 3 }
L:1/8
Q:1/4=90
M:3/4
K:G
V:1 treble nm="Grand Piano, Soprano"
V:2 treble nm="Choir Pad, Jotham, 87.87 D"
V:3 bass 
V:1
 [GB]>[GB] [GB]3 [Gc] | [GB][DA] [DG]2 D2 | [GB]>[Ac] [Bd]3 [GB] | [Ac][GB] [FA]4 | %4
w: By~Chester~G.~Allen,~1869 * * *||||
 [GB]>[GB] [GB]3 [Gc] | [GB][DA] [DG]2 D2 | [GB]>[Ac] [Bd]3 [Ac] | [GB][FA] G4 | %8
w: ||||
 [Ac]>[GB] [FA]3 D | [DG][DA] [DB]2 [DA]2 | [GB]>[Fc] [Gd]3 [GB] | [Ac][GB] [FA]4 | %12
w: ||||
 [GB]>[GB] [GB]3 [Gc] | [GB][DA] [DG]2 D2 | [GB]>[Ac] [Bd]3 [Ac] | [GB][FA] G4- | G4 z2 |] %17
w: |||||
V:2
 D>D D3 E | DC B,2 B,2 | D>D D3 D | DD D4 | D>D D3 E | DC B,2 B,2 | D>D D3 E | DC B,4 | %8
 D>D D3[K:bass] F, | G,F, G,2 F,2 | D>D D3 D | DD D4 | D>D D3 E | DC B,2 B,2 | D>D D3 E | DC B,4- | %16
 B,4 z2 |] %17
V:3
 G,>G, G,3 G, | G,G, G,2 G,2 | G,>G, G,3 G, | F,G, D,4 | G,>G, G,3 G, | G,G, G,2 G,2 | %6
 G,>G, G,3 C, | D,D, G,,4 | D,>D, D,3 D, | B,,D, z2 D,2 | G,>A, B,3 G, | F,G, D,4 | G,>G, G,3 G, | %13
 G,G, G,2 G,2 | G,>G, G,3 C, | D,D, G,,4- | G,,4 z2 |] %17

